src/lib/packages/icons/src/assets/filled/battery-bolt.svg

<svg width="24" height="24" viewBox="0 0 24 24" fill="none" xmlns="http://www.w3.org/2000/svg">
<path d="M10.9099 13.9399L10.1499 17H4.5C3.5 17 3 16.5 3 15.5V9.5C3 8.5 3.5 8 4.5 8H11.4299L8.27002 12.74C8.03002 13.11 8.28998 13.6001 8.72998 13.6001H10.6499C10.8299 13.6001 10.9599 13.7699 10.9099 13.9399ZM17.5 8H11.8501L11.0901 11.0601C11.0401 11.2301 11.1701 11.3999 11.3501 11.3999H13.27C13.71 11.3999 13.97 11.89 13.73 12.26L10.5701 17H17.5C18.5 17 19 16.5 19 15.5V9.5C19 8.5 18.5 8 17.5 8ZM21.75 14V11C21.75 10.586 21.414 10.25 21 10.25C20.586 10.25 20.25 10.586 20.25 11V14C20.25 14.414 20.586 14.75 21 14.75C21.414 14.75 21.75 14.414 21.75 14Z" fill="currentColor"/>
</svg>

<svg xmlns="http://www.w3.org/2000/svg" width="24" height="24" fill="none"><path fill="currentColor" d="M10.91 13.94 10.15 17H4.5c-1 0-1.5-.5-1.5-1.5v-6C3 8.5 3.5 8 4.5 8h6.93l-3.16 4.74c-.24.37.02.86.46.86h1.92c.18 0 .31.17.26.34ZM17.5 8h-5.65l-.76 3.06c-.05.17.08.34.26.34h1.92c.44 0 .7.49.46.86L10.57 17h6.93c1 0 1.5-.5 1.5-1.5v-6c0-1-.5-1.5-1.5-1.5Zm4.25 6v-3a.75.75 0 0 0-1.5 0v3a.75.75 0 0 0 1.5 0Z"/></svg>
